X: 1144
T: An Buachaill Caol Dubh
R: waltz
M: 3/4
K: Gmajor
A|D>F G3A B>c|d2 g4 aa/g/|f<d c<A B>d c<A|B2 BA/F/ G4|
A3G F<A (=F2|=F2 ^F)>G A<B (c2|c)>A d>g g2 a>g|f<d cA3 G2|
G4 G2 A2|D>F G3A B>c|d2 g4 g2|f<d c<(B B)>d c<A|
B2 BA/F/ G4|A3G F<A (=F2|=F2 ^F)>G A<B (c2|c)>A d>g g2 a>g|
f<d cA3 G2|G4 G4|G4 G4||
B>c|d2 d2 b2 a2|a<f g2 b>a (g2|g2) f<d d2 B>c|
(d4 d4)|d>e =f2 a2 {bab}a>f|ga/g/ f<d d>c d<g|f<a (g2 g4)|
G(3A/B/c/ d2 e/f/g/a/|b3a g3a|b2 {bab}b<a g2 a<g|f<d c<A B2 d>c|
A<(B B2) A2 (G2|G2) A3G F<A|(=F2 =F2 ^F)>G A<B|(c2 c)>A d>g g2|
a>g f<d cA3|G4 G4|G4 G4||

